Yaru++/apps/scalable/evolution.svg

<svg enable-background="new" height="256" width="256" xmlns="http://www.w3.org/2000/svg" xmlns:xlink="http://www.w3.org/1999/xlink"><filter id="a" color-interpolation-filters="sRGB"><feBlend in2="BackgroundImage" mode="multiply"/></filter><filter id="b" color-interpolation-filters="sRGB"><feBlend in2="BackgroundImage" mode="multiply"/></filter><linearGradient id="c" gradientUnits="userSpaceOnUse" x1="124.27730945611" x2="143.30334294868" y1="128.43566696631" y2="40.87459348461"><stop offset="0" stop-color="#f6f5f4"/><stop offset="1" stop-color="#e9e7e4"/></linearGradient><filter id="d" color-interpolation-filters="sRGB" height="1.022636" width="1.025538" x="-.012769" y="-.011318"><feGaussianBlur stdDeviation="1.1506835"/></filter><filter id="e" color-interpolation-filters="sRGB" height="1.090546" width="1.102154" x="-.051077" y="-.045273"><feGaussianBlur stdDeviation="4.6027342"/></filter><path d="m126.68997 5.9112755v.002c-5.42561-.01834-10.86857 2.68897-16.34919 8.1716335l-15.229856 14.897608h-50.35087v49.253276l-16.29976 15.943783v138.542004.002l111.363236-.002a62.118525 62.118525 0 0 0 42.79032 17.18971 62.118525 62.118525 0 0 0 62.11984-62.11787 62.118525 62.118525 0 0 0 -20.68222-46.18792v-47.425924-.002h-.002l-16.29578-16.092106v-49.102975h-49.72791l-15.08945-14.899586c-5.41135-5.4113535-10.82073-8.1512595-16.24636-8.1716335z" fill="#0d0b02" filter="url(#e)" opacity=".1" stroke-width="2.037407"/><path d="m126.68997 5.9112755v.002c-5.42561-.01834-10.86857 2.68897-16.34919 8.1716335l-15.229856 14.897608h-50.35087v49.253276l-16.29976 15.943783v138.542004.002l111.363236-.002a62.118525 62.118525 0 0 0 42.79032 17.18971 62.118525 62.118525 0 0 0 62.11984-62.11787 62.118525 62.118525 0 0 0 -20.68222-46.18792v-47.425924-.002h-.002l-16.29578-16.092106v-49.102975h-49.72791l-15.08945-14.899586c-5.41135-5.4113535-10.82073-8.1512595-16.24636-8.1716335z" fill="#0d0b02" filter="url(#d)" opacity=".1" stroke-width="2.037407"/><path d="m126.68997 5.9112755v.002c-5.42561-.01834-10.86857 2.68897-16.34919 8.1716335l-15.229856 14.897608h-50.35087v49.253276l-16.29976 15.943783v138.542004.002l111.363236-.002a62.118525 62.118525 0 0 0 42.79032 17.18971 62.118525 62.118525 0 0 0 62.11984-62.11787 62.118525 62.118525 0 0 0 -20.68222-46.18792v-47.425924-.002h-.002l-16.29578-16.092106v-49.102975h-49.72791l-15.08945-14.899586c-5.41135-5.4113535-10.82073-8.1512595-16.24636-8.1716335z" fill="#0d0b02" opacity=".1" stroke-width="2.037407"/><g stroke-width="2.004007"><path d="m126.48971 7.4156895c-5.33667-.01803-10.69137 2.6432845-16.08215 8.0360675l-80.537015 78.781511v136.272462h192.384645v-136.272462l-79.78552-78.783515c-5.32264-5.322642-10.64328-8.0160275-15.97996-8.0360675z" fill="#9a9996"/><path d="m126.49002 7.4136335v.0019c-5.33667-.01803-10.69234 2.6429455-16.08312 8.0357285l-80.536232 78.781686v1.991911l80.536232-78.781641c5.39078-5.392783 10.74645-8.0537555 16.08312-8.0357275v-.0019c5.33668.02004 10.65739 2.7130855 15.98004 8.0357285l79.78537 78.783586v-1.991957l-79.78537-78.783586c-5.32265-5.322643-10.64336-8.0156885-15.98004-8.0357285z" fill="#fff" opacity=".3"/><path d="m45.902599 30.105054h160.320541v176.352596h-160.320541z" fill="url(#c)"/><path d="m29.870545 94.233268v136.274462l192.384645-.002v-136.272613l-96.19233 88.176303z" fill="#d0d0cd"/><path d="m29.870545 230.50573h192.384645l-79.78552-78.78351c-10.64529-10.64529-21.27854-10.78357-32.06411 0z" fill="#deddda"/></g><path d="m69.953 251.55a28.557 28.557 0 0 0 -7.01 18.714c.003 6.37 2.74 13.73 6.663 18.748h37.874z" filter="url(#a)" opacity=".15" transform="matrix(2.0708117 0 0 2.0708117 -7.997853 -368.40881)"/><path d="m126.48971 143.68815c-5.33667-.018-10.69137 2.64329-16.08215 8.03606l-80.537015 78.78152h4.098194l76.436821-74.7755c10.78557-10.78357 21.41882-10.64529 32.06411 0l75.7274 74.7755h4.05812l-79.78552-78.78351c-5.32264-5.32265-10.64328-8.01603-15.97996-8.03608z" fill="#edeceb" stroke-width="2.004007"/><path d="m31.90732 228.51382-2.036652 1.99191h192.384762l-2.0172-1.99191z" fill="#070500" opacity=".2" stroke-width="2.004007"/><g transform="matrix(2.3077576 0 0 2.3077576 -30.817196 -20.402045)"><path d="m118.476 89.574a26.476 26.476 0 0 1 -26.476 26.476 26.476 26.476 0 0 1 -26.476-26.476 26.476 26.476 0 0 1 26.476-26.476 26.476 26.476 0 0 1 26.476 26.476z" fill="#9141ac"/><circle cx="92" cy="89.573997" fill="#f6f5f4" r="21.280001"/><g stroke-linecap="round"><path d="m92 89.574 11.082-11.935" fill="#949390" fill-rule="evenodd" stroke="#949390" stroke-width=".854"/><path d="m92 89.574-5.967 15.344" fill="none" stroke="#ed333b" stroke-width=".854"/><path d="m91.494 268.07-9.513-9.52" fill="none" filter="url(#b)" stroke="#68676b" stroke-width="3.808" transform="matrix(.89735 0 0 .89735 9.889 -150.8)"/></g><circle cx="47.532001" cy="119.28" fill="#11100f" r="2.557" transform="matrix(.91326128 -.40737432 .40737432 .91326128 0 0)"/><circle cx="92.012001" cy="89.573997" fill="#131c1a" r=".854"/><path d="m185.60156 128.20508a61.34831 61.34831 0 0 0 -61.34961 61.34765 61.34831 61.34831 0 0 0 .041 1.16993 61.34831 61.34831 0 0 1 61.30859-60.51758 61.34831 61.34831 0 0 1 61.30664 60.17773 61.34831 61.34831 0 0 0 .041-.83008 61.34831 61.34831 0 0 0 -61.34766-61.34765z" fill="#fff" opacity=".3" stroke-width="2.317129" transform="matrix(.43156853 0 0 .43156853 11.900474 7.768622)"/><path d="m246.9082 188.38281a61.34831 61.34831 0 0 1 -61.30664 60.51953 61.34831 61.34831 0 0 1 -61.30859-60.17968 61.34831 61.34831 0 0 0 -.041.83007 61.34831 61.34831 0 0 0 61.34961 61.34961 61.34831 61.34831 0 0 0 61.34766-61.34961 61.34831 61.34831 0 0 0 -.041-1.16992z" opacity=".2" stroke-width="2.317129" transform="matrix(.43156853 0 0 .43156853 11.900474 7.768622)"/></g><path d="m45.903219 30.104692v1.991912h160.319661v-1.991912z" fill="#fff" opacity=".3" stroke-width="2.004007"/></svg>

<?xml version="1.0" encoding="UTF-8" standalone="no"?>
<svg
   xmlns:dc="http://purl.org/dc/elements/1.1/"
   xmlns:cc="http://creativecommons.org/ns#"
   xmlns:rdf="http://www.w3.org/1999/02/22-rdf-syntax-ns#"
   xmlns:svg="http://www.w3.org/2000/svg"
   xmlns="http://www.w3.org/2000/svg"
   xmlns:sodipodi="http://sodipodi.sourceforge.net/DTD/sodipodi-0.dtd"
   xmlns:inkscape="http://www.inkscape.org/namespaces/inkscape"
   width="256"
   height="256"
   version="1.0"
   id="svg47"
   sodipodi:docname="evolution.svg"
   style="enable-background:new"
   inkscape:version="0.92.4 (5da689c313, 2019-01-14)">
  <metadata
     id="metadata51">
    <rdf:RDF>
      <cc:Work
         rdf:about="">
        <dc:format>image/svg+xml</dc:format>
        <dc:type
           rdf:resource="http://purl.org/dc/dcmitype/StillImage" />
        <dc:title />
      </cc:Work>
    </rdf:RDF>
  </metadata>
  <sodipodi:namedview
     pagecolor="#ffffff"
     bordercolor="#666666"
     borderopacity="1"
     objecttolerance="10"
     gridtolerance="10"
     guidetolerance="10"
     inkscape:pageopacity="0"
     inkscape:pageshadow="2"
     inkscape:window-width="1920"
     inkscape:window-height="1016"
     id="namedview49"
     showgrid="false"
     inkscape:zoom="3.1530311"
     inkscape:cx="70.152993"
     inkscape:cy="124.6"
     inkscape:window-x="0"
     inkscape:window-y="27"
     inkscape:window-maximized="1"
     inkscape:current-layer="svg47" />
  <defs
     id="defs13">
    <filter
       id="f"
       style="color-interpolation-filters:sRGB">
      <feBlend
         in2="BackgroundImage"
         mode="multiply"
         id="feBlend2" />
    </filter>
    <filter
       id="g"
       style="color-interpolation-filters:sRGB">
      <feBlend
         in2="BackgroundImage"
         mode="multiply"
         id="feBlend5" />
    </filter>
    <linearGradient
       id="e"
       x1="63.109001"
       x2="72.602997"
       y1="65.067001"
       y2="21.374001"
       gradientUnits="userSpaceOnUse"
       gradientTransform="matrix(2.0040069,0,0,2.0040069,-2.1935637,-1.9590515)">
      <stop
         stop-color="#f6f5f4"
         offset="0"
         id="stop8" />
      <stop
         stop-color="#e9e7e4"
         offset="1"
         id="stop10" />
    </linearGradient>
    <filter
       inkscape:collect="always"
       style="color-interpolation-filters:sRGB"
       id="filter990"
       x="-0.01276921"
       width="1.0255384"
       y="-0.011318198"
       height="1.0226364">
      <feGaussianBlur
         inkscape:collect="always"
         stdDeviation="1.1506835"
         id="feGaussianBlur992" />
    </filter>
    <filter
       inkscape:collect="always"
       style="color-interpolation-filters:sRGB"
       id="filter1020"
       x="-0.051076841"
       width="1.1021537"
       y="-0.045272792"
       height="1.0905456">
      <feGaussianBlur
         inkscape:collect="always"
         stdDeviation="4.6027342"
         id="feGaussianBlur1022" />
    </filter>
  </defs>
  <path
     style="opacity:0.1;fill:#0d0b02;fill-opacity:1;stroke-width:2.03740692;filter:url(#filter1020)"
     d="m 126.68997,5.9112755 v 0.002 c -5.42561,-0.01834 -10.86857,2.68897 -16.34919,8.1716335 L 95.110924,28.982517 h -50.35087 v 49.253276 l -16.29976,15.943783 v 138.542004 0.002 l 111.363236,-0.002 a 62.118525,62.118525 0 0 0 42.79032,17.18971 62.118525,62.118525 0 0 0 62.11984,-62.11787 62.118525,62.118525 0 0 0 -20.68222,-46.18792 v -47.425924 -0.002 h -0.002 L 207.75369,78.08547 V 28.982495 H 158.02578 L 142.93633,14.082909 C 137.52498,8.6715555 132.1156,5.9316495 126.68997,5.9112755 Z"
     id="path994"
     inkscape:connector-curvature="0" />
  <path
     inkscape:connector-curvature="0"
     id="path980"
     d="m 126.68997,5.9112755 v 0.002 c -5.42561,-0.01834 -10.86857,2.68897 -16.34919,8.1716335 L 95.110924,28.982517 h -50.35087 v 49.253276 l -16.29976,15.943783 v 138.542004 0.002 l 111.363236,-0.002 a 62.118525,62.118525 0 0 0 42.79032,17.18971 62.118525,62.118525 0 0 0 62.11984,-62.11787 62.118525,62.118525 0 0 0 -20.68222,-46.18792 v -47.425924 -0.002 h -0.002 L 207.75369,78.08547 V 28.982495 H 158.02578 L 142.93633,14.082909 C 137.52498,8.6715555 132.1156,5.9316495 126.68997,5.9112755 Z"
     style="opacity:0.1;fill:#0d0b02;fill-opacity:1;stroke-width:2.03740692;filter:url(#filter990)" />
  <path
     style="opacity:0.1;fill:#0d0b02;fill-opacity:1;stroke-width:2.03740692"
     d="m 126.68997,5.9112755 v 0.002 c -5.42561,-0.01834 -10.86857,2.68897 -16.34919,8.1716335 L 95.110924,28.982517 h -50.35087 v 49.253276 l -16.29976,15.943783 v 138.542004 0.002 l 111.363236,-0.002 a 62.118525,62.118525 0 0 0 42.79032,17.18971 62.118525,62.118525 0 0 0 62.11984,-62.11787 62.118525,62.118525 0 0 0 -20.68222,-46.18792 v -47.425924 -0.002 h -0.002 L 207.75369,78.08547 V 28.982495 H 158.02578 L 142.93633,14.082909 C 137.52498,8.6715555 132.1156,5.9316495 126.68997,5.9112755 Z"
     id="path927"
     inkscape:connector-curvature="0" />
  <path
     d="m 126.48971,7.4156895 c -5.33667,-0.01803 -10.69137,2.6432845 -16.08215,8.0360675 L 29.870545,94.233268 V 230.50573 H 222.25519 V 94.233268 L 142.46967,15.449753 C 137.14703,10.127111 131.82639,7.4337255 126.48971,7.4136855 Z"
     id="path15"
     inkscape:connector-curvature="0"
     style="fill:#9a9996;stroke-width:2.00400686" />
  <path
     style="opacity:0.3;fill:#ffffff;fill-opacity:1;stroke-width:2.00400686"
     d="m 126.49002,7.4136335 v 0.0019 c -5.33667,-0.01803 -10.69234,2.6429455 -16.08312,8.0357285 L 29.870668,94.232948 v 1.991911 L 110.4069,17.443218 c 5.39078,-5.392783 10.74645,-8.0537555 16.08312,-8.0357275 v -0.0019 c 5.33668,0.02004 10.65739,2.7130855 15.98004,8.0357285 l 79.78537,78.783586 V 94.232948 L 142.47006,15.449362 C 137.14741,10.126719 131.8267,7.4336735 126.49002,7.4136335 Z"
     id="path867"
     inkscape:connector-curvature="0" />
  <path
     d="M 45.902599,30.105054 H 206.22314 V 206.45765 H 45.902599 Z"
     id="path17"
     inkscape:connector-curvature="0"
     style="fill:url(#e);stroke-width:2.00400686" />
  <path
     d="M 29.870545,94.233268 V 230.50773 l 192.384645,-0.002 V 94.233117 l -96.19233,88.176303 z"
     id="path19"
     inkscape:connector-curvature="0"
     style="fill:#d0d0cd;stroke-width:2.00400686" />
  <path
     d="M 29.870545,230.50573 H 222.25519 l -79.78552,-78.78351 c -10.64529,-10.64529 -21.27854,-10.78357 -32.06411,0 z"
     id="path21"
     inkscape:connector-curvature="0"
     style="fill:#deddda;stroke-width:2.00400686" />
  <path
     transform="matrix(2.0708117,0,0,2.0708117,-7.9978526,-368.40881)"
     d="m 69.953,251.55 a 28.557,28.557 0 0 0 -7.01,18.714 c 0.003,6.37 2.74,13.73 6.663,18.748 h 37.874 z"
     id="path23"
     inkscape:connector-curvature="0"
     style="opacity:0.15;filter:url(#f);enable-background:new" />
  <path
     d="m 126.48971,143.68815 c -5.33667,-0.018 -10.69137,2.64329 -16.08215,8.03606 l -80.537015,78.78152 h 4.098194 l 76.436821,-74.7755 c 10.78557,-10.78357 21.41882,-10.64529 32.06411,0 l 75.7274,74.7755 h 4.05812 l -79.78552,-78.78351 c -5.32264,-5.32265 -10.64328,-8.01603 -15.97996,-8.03608 z"
     id="path25"
     inkscape:connector-curvature="0"
     style="fill:#edeceb;stroke-width:2.00400686" />
  <path
     style="opacity:0.2;fill:#070500;fill-opacity:1;stroke-width:2.00400686"
     d="m 31.90732,228.51382 -2.036652,1.99191 H 222.25543 l -2.0172,-1.99191 z"
     id="path922"
     inkscape:connector-curvature="0" />
  <g
     transform="matrix(2.3077576,0,0,2.3077576,-30.817196,-20.402045)"
     id="g45">
    <path
       d="M 118.476,89.574 A 26.476,26.476 0 0 1 92,116.05 26.476,26.476 0 0 1 65.524,89.574 26.476,26.476 0 0 1 92,63.098 26.476,26.476 0 0 1 118.476,89.574 Z"
       id="path31"
       inkscape:connector-curvature="0"
       style="fill:#9141ac;enable-background:new" />
    <circle
       cx="92"
       cy="89.573997"
       r="21.280001"
       id="circle33"
       style="fill:#f6f5f4;enable-background:new" />
    <path
       d="M 92,89.574 103.082,77.639"
       id="path35"
       inkscape:connector-curvature="0"
       style="fill:#949390;fill-rule:evenodd;stroke:#949390;stroke-width:0.85399997;stroke-linecap:round;enable-background:new" />
    <path
       d="m 92,89.574 -5.967,15.344"
       id="path37"
       inkscape:connector-curvature="0"
       style="fill:none;stroke:#ed333b;stroke-width:0.85399997;stroke-linecap:round;enable-background:new" />
    <path
       transform="matrix(0.89735,0,0,0.89735,9.889,-150.8)"
       d="m 91.494,268.07 -9.513,-9.52"
       id="path39"
       inkscape:connector-curvature="0"
       style="fill:none;stroke:#68676b;stroke-width:3.80800009;stroke-linecap:round;filter:url(#g);enable-background:new" />
    <circle
       transform="rotate(-24.04)"
       cx="47.532001"
       cy="119.28"
       r="2.5569999"
       overflow="visible"
       id="circle41"
       style="overflow:visible;fill:#11100f;enable-background:accumulate" />
    <circle
       cx="92.012001"
       cy="89.573997"
       r="0.85399997"
       overflow="visible"
       id="circle43"
       style="overflow:visible;fill:#131c1a;enable-background:accumulate" />
    <path
       style="opacity:0.3;fill:#ffffff;fill-opacity:1;stroke-width:2.31712914;enable-background:new"
       d="m 185.60156,128.20508 a 61.34831,61.34831 0 0 0 -61.34961,61.34765 61.34831,61.34831 0 0 0 0.041,1.16993 61.34831,61.34831 0 0 1 61.30859,-60.51758 61.34831,61.34831 0 0 1 61.30664,60.17773 61.34831,61.34831 0 0 0 0.041,-0.83008 61.34831,61.34831 0 0 0 -61.34766,-61.34765 z"
       transform="matrix(0.43156853,0,0,0.43156853,11.900474,7.768622)"
       id="path912"
       inkscape:connector-curvature="0" />
    <path
       style="opacity:0.2;fill:#000000;fill-opacity:1;stroke-width:2.31712914;enable-background:new"
       d="m 246.9082,188.38281 a 61.34831,61.34831 0 0 1 -61.30664,60.51953 61.34831,61.34831 0 0 1 -61.30859,-60.17968 61.34831,61.34831 0 0 0 -0.041,0.83007 61.34831,61.34831 0 0 0 61.34961,61.34961 61.34831,61.34831 0 0 0 61.34766,-61.34961 61.34831,61.34831 0 0 0 -0.041,-1.16992 z"
       transform="matrix(0.43156853,0,0,0.43156853,11.900474,7.768622)"
       id="path917"
       inkscape:connector-curvature="0" />
  </g>
  <path
     style="opacity:0.3;fill:#ffffff;fill-opacity:1;stroke-width:2.00400686"
     d="m 45.903219,30.104692 v 1.991912 H 206.22288 v -1.991912 z"
     id="path858"
     inkscape:connector-curvature="0" />
  <g
     id="g957"
     transform="matrix(2.3171291,0,0,2.3171291,210.7674,-15.418534)" />
</svg>
